src/general/components/img/star-fill-white.svg

<?xml version="1.0" encoding="UTF-8"?>
<svg width="50px" height="50px" viewBox="0 0 50 50" version="1.1" xmlns="http://www.w3.org/2000/svg" xmlns:xlink="http://www.w3.org/1999/xlink">
    <!-- Generator: Sketch 48.2 (47327) - http://www.bohemiancoding.com/sketch -->
    <title>Artboard</title>
    <desc>Created with Sketch.</desc>
    <defs></defs>
    <g id="2018011811" stroke="none" stroke-width="1" fill="none" fill-rule="evenodd">
        <g id="Artboard" fill="#FFFFFF" fill-rule="nonzero">
            <path d="M39.5018023,48.807 C40.0338023,48.754 40.5168023,48.5 40.8148023,48.067 C41.1128023,47.634 41.2538023,47.132 41.1608023,46.602 L38.7178023,31.71 L49.4168023,21.093 C49.9458023,20.598 50.1378023,19.841 49.8998023,19.139 C49.6958023,18.453 49.0748023,17.943 48.3808023,17.841 L33.4848023,15.568 L26.7068023,2.069 C26.3798023,1.413 25.7268023,1 24.9968023,1 C24.2678023,1 23.6068023,1.413 23.2868023,2.069 L16.5258023,15.568 L1.61180235,17.841 C0.901802349,17.943 0.314802349,18.453 0.0938023494,19.139 C-0.127197651,19.841 0.0478023494,20.597 0.560802349,21.093 L11.2758023,31.71 L8.83280235,46.602 C8.71080235,47.331 9.00480235,48.061 9.59280235,48.463 C10.1798023,48.899 10.9618023,48.949 11.6168023,48.608 L24.9968023,41.674 L38.3768023,48.608 C38.7198023,48.799 39.1118023,48.856 39.5018023,48.807 Z" id="Shape-Copy-3"></path>
        </g>
    </g>
</svg>

<svg height="50" viewBox="0 0 50 50" width="50" xmlns="http://www.w3.org/2000/svg"><path d="m39.5018023 48.807c.532-.053 1.015-.307 1.313-.74s.439-.935.346-1.465l-2.443-14.892 10.699-10.617c.529-.495.721-1.252.483-1.954-.204-.686-.825-1.196-1.519-1.298l-14.896-2.273-6.778-13.499c-.327-.656-.98-1.069-1.71-1.069-.729 0-1.39.413-1.71 1.069l-6.761 13.499-14.91399995 2.273c-.71.102-1.297.612-1.518 1.298-.221.702-.046 1.458.467 1.954l10.71499995 10.617-2.44299995 14.892c-.122.729.172 1.459.76 1.861.58699995.436 1.36899995.486 2.02399995.145l13.38-6.934 13.38 6.934c.343.191.735.248 1.125.199z" fill="#fff"/></svg>
